X:16662
T:The Dunmore Lasses
T:The Road to Knock
R:reel
A:Ireland
D:Matt Molloy
Z:id:hn-reel-289
Z:mod wm
M:C|
K:Em
~E3F GFGA|Be~e2 Be~e2|EDEF G2BG|AcBA GEFD|
~E3F GFGA|Beed ~e2 ef|(3gfe fd edBG|1 A2BA GEFD:|2 AcBA GE~E2||
|:gfeg fedf|Be~e2 Be~e2|g2eg fedB|AcBA GE~E2|
g2eg fedc|Beed ~e3f|(3gfe fd edBG|1 AcBA GE~E2:|2 AcBA GEFD||
